X:13
T:Mountain Road, The
C:Michael Gorman (1895-1970)
S:as played by James Kelly on Capel Street
N:transcribed by Alan Ng
H:"a great favourite of set dancers in County Clare" -J.Kelly
D:James Kelly, Capel Street, Bowhand Records BOW 0001
Z:composer according to http://home1.swipnet.se/~w-11382/hnr0.abc #79
Z: id:ng-reels-13 transcribed by Alan Ng alan@alan-ng.nospam (net) Feb. 6, 1997
E:12
M:C|
K:D
\bigskip
F2AF BFAF|~F2AF EFDE|1 F2AF BFAF|{G}FE{F}ED {F}ED[DB,]D:|2 FA~A2 BAFB|*
E:13
ABde f ~d3|:~d3B ADFA|~d3e fgfe|defd AFDF|GEFD EDB,D:|**
\bigskip
